X:13
T:A Favourite Jigg. JBu.13
O:England,South Yorkshire
S:Joshua Burnett’s MS,c1835,S.Yorkshire
M:6/8
L:1/8
Q:3/8=120
R:jig
Z:vmp.R.Greig.2010
K:D
A|Add dcd|efga2b|afd dcd|ecA ABc|
Add dcd|efg a2b|agf efg|fddd2:|
|:f|eAA fdd|eAA efg|fdd eAA|faaa2f|
eAA fdd|eAA fga|fgf eag|fddd2:|

